X: 322
T: Hawkeye
C: Bert Murray
R: strathspey
B: Bert Murray's "Bon Accord Collection" 1999 p.32
%
Z: 2011 John Chambers <jc:trillian.mit.edu>
M: C
L: 1/16
K: D
(uA2Bc) |\
d3AF3D A,3DF3D | B,3DG3B A4 (A2Bc) | d3AF3D A,3DF3A | G2AG F2GF E4 (A2Bc) |
d3AF3D A,3DF3D | B,3DG3B A4 (A2Bc) | d2cd A2Bc d2AG F2ED | C2B,A, G2FE D4 ||
A4 |\
F3DA,3D F3Ad3c | B3GD3G B3GB3d | A3FD3B, A,3DF3A | G2AG F2GF E4 ((3A^G=G) |
F3DA,3D F3Ad3c | B3GD3G A4 (A2Bc) | d2cd A2Bc d2AG F2ED | C2B,A, G2FE D4 |]

%%sep 2 1 500

